X: 90
T: No_28_The_Rocks_are_Making_a_Noise.krn
N: Derived from No_28_The_Rocks_are_Making_a_Noise.krn
%%abc-version 2.0
%%abcx-abcm2ps-target-version 5.9.1 (29 Sep 2008)
%%abc-creator hum2abc beta
%%abcx-conversion-date 2019/03/15 08:37:56
%%humdrum-veritas 912544519
%%humdrum-veritas-data 1260149261
%%linebreak <none>
%%barnumbers 0
L: 1/8
M: 2/4
K: C clef=bass
[K:clef=bass][M:2/4]G,D DD | 
CA, F,A, | 
A,3G, | 
G,4 ]|:  
D3/C/ DD | 
DD DC | 
A,3/G,/ A,G, | 
G,2G, z | 
A,C CC ||  
[M:3/4]DC CA, G,E,/E,/ ||  
[M:2/4]A,A, A,A, | 
A,A, A,A, | 
G,4 :|]  



